X: 42451
T: Westmeath Bachelor, The
R: jig
M: 6/8
K: Amajor
C2D|:EzE E_E=E|czA AGA|B2A G2F|E6|
BzB B2c|dzB B2G|EzE F2D|C3 C2D|
EzE E_E=E|czA AGA|B2A G2F|E6|
BzB B2c|dzB B2G|EzE F2G|A3 C2D:|

